public/logos/OM.svg

<?xml version="1.0" encoding="UTF-8"?>
<svg xmlns="http://www.w3.org/2000/svg" xmlns:xlink="http://www.w3.org/1999/xlink" width="176pt" height="47.8pt" viewBox="0 0 176 47.8" version="1.1">
<defs>
<clipPath id="clip1">
  <path d="M 0 0 L 75 0 L 75 47.800781 L 0 47.800781 Z M 0 0 "/>
</clipPath>
</defs>
<g id="surface1">
<path style=" stroke:none;fill-rule:nonzero;fill:rgb(14.813232%,30.062866%,64.474487%);fill-opacity:1;" d="M 152.695312 5.941406 L 152.695312 11.824219 L 161.09375 11.824219 L 161.09375 34.921875 L 167.59375 34.921875 L 167.59375 11.824219 L 176 11.824219 L 176 5.941406 Z M 138.167969 15.769531 L 145.042969 34.921875 L 152.175781 34.921875 L 141.597656 5.941406 L 135.140625 5.941406 L 123.636719 34.921875 L 130.769531 34.921875 Z M 114.667969 34.921875 L 121.171875 34.921875 L 121.171875 5.941406 L 114.667969 5.941406 Z M 99.761719 5.941406 L 92.601562 25.101562 L 85.367188 5.941406 L 76.285156 5.941406 L 76.285156 34.921875 L 82.78125 34.921875 L 82.78125 17.59375 L 89.734375 34.921875 L 95.3125 34.921875 L 102.347656 17.59375 L 102.347656 34.921875 L 108.851562 34.921875 L 108.851562 5.941406 "/>
<path style=" stroke:none;fill-rule:nonzero;fill:rgb(92.984009%,20.648193%,12.767029%);fill-opacity:1;" d="M 132.335938 34.046875 L 139.542969 34.046875 L 141.902344 27.789062 L 134.699219 27.789062 "/>
<path style=" stroke:none;fill-rule:nonzero;fill:rgb(14.813232%,30.062866%,64.474487%);fill-opacity:1;" d="M 76.285156 45.828125 L 77.4375 45.828125 L 77.4375 40.511719 L 77.453125 40.511719 L 79.371094 45.828125 L 80.363281 45.828125 L 82.277344 40.511719 L 82.3125 40.511719 L 82.3125 45.828125 L 83.453125 45.828125 L 83.453125 38.933594 L 81.765625 38.933594 L 79.914062 44.34375 L 79.890625 44.34375 L 77.984375 38.933594 L 76.285156 38.933594 "/>
<path style=" stroke:none;fill-rule:nonzero;fill:rgb(14.813232%,30.062866%,64.474487%);fill-opacity:1;" d="M 87.574219 39.757812 C 89.039062 39.757812 89.664062 41.054688 89.664062 42.382812 C 89.664062 43.710938 89.039062 45.015625 87.574219 45.015625 C 86.070312 45.015625 85.464844 43.710938 85.464844 42.382812 C 85.464844 41.054688 86.070312 39.757812 87.574219 39.757812 M 87.574219 38.769531 C 85.5 38.769531 84.253906 40.421875 84.253906 42.382812 C 84.253906 44.359375 85.5 46 87.574219 46 C 89.636719 46 90.871094 44.359375 90.871094 42.382812 C 90.871094 40.417969 89.636719 38.769531 87.574219 38.769531 "/>
<path style=" stroke:none;fill-rule:nonzero;fill:rgb(14.813232%,30.062866%,64.474487%);fill-opacity:1;" d="M 91.648438 45.828125 L 92.808594 45.828125 L 92.808594 40.769531 L 92.832031 40.769531 L 95.976562 45.828125 L 97.253906 45.828125 L 97.253906 38.933594 L 96.089844 38.933594 L 96.089844 44.019531 L 96.074219 44.019531 L 92.933594 38.933594 L 91.648438 38.933594 "/>
<path style=" stroke:none;fill-rule:nonzero;fill:rgb(14.813232%,30.062866%,64.474487%);fill-opacity:1;" d="M 104.421875 42.195312 L 101.476562 42.195312 L 101.476562 43.121094 L 103.324219 43.121094 C 103.3125 44.289062 102.632812 45.035156 101.378906 45.015625 C 99.910156 45.015625 99.292969 43.710938 99.292969 42.382812 C 99.292969 41.070312 99.910156 39.761719 101.378906 39.761719 C 102.257812 39.761719 103.046875 40.226562 103.167969 41.117188 L 104.347656 41.117188 C 104.160156 39.578125 102.890625 38.769531 101.378906 38.769531 C 99.320312 38.769531 98.074219 40.421875 98.074219 42.402344 C 98.074219 44.359375 99.320312 46 101.378906 46 C 102.230469 46 102.820312 45.777344 103.46875 45.035156 L 103.660156 45.832031 L 104.421875 45.832031 "/>
<path style=" stroke:none;fill-rule:nonzero;fill:rgb(14.813232%,30.062866%,64.474487%);fill-opacity:1;" d="M 108.402344 39.757812 C 109.886719 39.757812 110.492188 41.054688 110.492188 42.382812 C 110.492188 43.710938 109.886719 45.015625 108.402344 45.015625 C 106.910156 45.015625 106.3125 43.710938 106.3125 42.382812 C 106.3125 41.054688 106.910156 39.757812 108.402344 39.757812 M 108.402344 38.769531 C 106.335938 38.769531 105.085938 40.421875 105.085938 42.382812 C 105.085938 44.359375 106.335938 46 108.402344 46 C 110.460938 46 111.710938 44.359375 111.710938 42.382812 C 111.710938 40.417969 110.460938 38.769531 108.402344 38.769531 "/>
<path style=" stroke:none;fill-rule:nonzero;fill:rgb(14.813232%,30.062866%,64.474487%);fill-opacity:1;" d="M 112.535156 45.828125 L 117.253906 45.828125 L 117.253906 44.792969 L 113.746094 44.792969 L 113.746094 38.933594 L 112.535156 38.933594 "/>
<path style=" stroke:none;fill-rule:nonzero;fill:rgb(14.813232%,30.062866%,64.474487%);fill-opacity:1;" d="M 117.804688 38.933594 L 119.011719 38.933594 L 119.011719 45.824219 L 117.804688 45.824219 L 117.804688 38.933594 "/>
<path style=" stroke:none;fill-rule:nonzero;fill:rgb(14.813232%,30.062866%,64.474487%);fill-opacity:1;" d="M 119.410156 45.828125 L 120.648438 45.828125 L 121.296875 44.015625 L 124.054688 44.015625 L 124.707031 45.828125 L 125.996094 45.828125 L 123.328125 38.925781 L 122.046875 38.925781 Z M 122.667969 40.121094 L 122.699219 40.121094 L 123.742188 43.105469 L 121.640625 43.105469 "/>
<path style=" stroke:none;fill-rule:nonzero;fill:rgb(14.813232%,30.062866%,64.474487%);fill-opacity:1;" d="M 126.335938 45.828125 L 127.480469 45.828125 L 127.480469 40.769531 L 127.511719 40.769531 L 130.65625 45.828125 L 131.9375 45.828125 L 131.9375 38.933594 L 130.78125 38.933594 L 130.78125 44.019531 L 130.761719 44.019531 L 127.613281 38.933594 L 126.335938 38.933594 "/>
<path style=" stroke:none;fill-rule:nonzero;fill:rgb(14.813232%,30.062866%,64.474487%);fill-opacity:1;" d="M 134.691406 45.828125 L 135.929688 45.828125 L 136.578125 44.015625 L 139.332031 44.015625 L 139.984375 45.828125 L 141.285156 45.828125 L 138.613281 38.925781 L 137.332031 38.925781 Z M 137.949219 40.121094 L 137.976562 40.121094 L 139.019531 43.105469 L 136.914062 43.105469 "/>
<path style=" stroke:none;fill-rule:nonzero;fill:rgb(14.813232%,30.062866%,64.474487%);fill-opacity:1;" d="M 141.667969 38.933594 L 142.863281 38.933594 L 142.863281 45.824219 L 141.667969 45.824219 L 141.667969 38.933594 "/>
<path style=" stroke:none;fill-rule:nonzero;fill:rgb(14.813232%,30.062866%,64.474487%);fill-opacity:1;" d="M 144.074219 45.828125 L 145.265625 45.828125 L 145.265625 43 L 147.058594 43 C 148.1875 43 148.433594 43.546875 148.433594 44.820312 C 148.433594 45.144531 148.433594 45.539062 148.617188 45.824219 L 149.914062 45.824219 C 149.660156 45.550781 149.542969 44.820312 149.542969 44.015625 C 149.542969 42.929688 148.925781 42.609375 148.523438 42.550781 L 148.523438 42.539062 C 148.738281 42.445312 149.660156 42.117188 149.660156 40.792969 C 149.660156 39.625 148.890625 38.929688 147.363281 38.929688 L 144.082031 38.929688 L 144.082031 45.828125 Z M 145.265625 39.914062 L 147.230469 39.914062 C 147.882812 39.914062 148.441406 40.101562 148.441406 40.972656 C 148.441406 41.707031 148.023438 42.078125 147.257812 42.078125 L 145.265625 42.078125 "/>
<path style=" stroke:none;fill-rule:nonzero;fill:rgb(14.813232%,30.062866%,64.474487%);fill-opacity:1;" d="M 150.589844 45.828125 L 155.300781 45.828125 L 155.300781 44.792969 L 151.804688 44.792969 L 151.804688 38.933594 L 150.589844 38.933594 "/>
<path style=" stroke:none;fill-rule:nonzero;fill:rgb(14.813232%,30.062866%,64.474487%);fill-opacity:1;" d="M 155.863281 38.933594 L 157.066406 38.933594 L 157.066406 45.824219 L 155.863281 45.824219 L 155.863281 38.933594 "/>
<path style=" stroke:none;fill-rule:nonzero;fill:rgb(14.813232%,30.062866%,64.474487%);fill-opacity:1;" d="M 158.210938 45.828125 L 159.367188 45.828125 L 159.367188 40.769531 L 159.390625 40.769531 L 162.539062 45.828125 L 163.816406 45.828125 L 163.816406 38.933594 L 162.652344 38.933594 L 162.652344 44.019531 L 162.632812 44.019531 L 159.496094 38.933594 L 158.210938 38.933594 "/>
<path style=" stroke:none;fill-rule:nonzero;fill:rgb(14.813232%,30.062866%,64.474487%);fill-opacity:1;" d="M 164.960938 45.828125 L 170.003906 45.828125 L 170.003906 44.792969 L 166.164062 44.792969 L 166.164062 42.789062 L 169.644531 42.789062 L 169.644531 41.773438 L 166.164062 41.773438 L 166.164062 39.972656 L 169.945312 39.972656 L 169.945312 38.933594 L 164.960938 38.933594 "/>
<g clip-path="url(#clip1)" clip-rule="nonzero">
<path style=" stroke:none;fill-rule:nonzero;fill:rgb(14.813232%,30.062866%,64.474487%);fill-opacity:1;" d="M 15.925781 4.917969 C 15.644531 4.71875 15.042969 3.222656 15.15625 2.300781 C 15.296875 1.140625 16.246094 -0.0117188 17.421875 0 C 18.777344 0.0273438 19.824219 0.878906 21.355469 0.898438 C 21.996094 0.910156 22.554688 0.449219 22.9375 0.246094 C 22.65625 1.582031 21.878906 3.109375 20.480469 3.46875 C 19.363281 3.753906 17.902344 3.269531 16.9375 3.664062 C 16.390625 3.882812 16.042969 4.621094 15.925781 4.917969 M 26.824219 47.800781 C 23.113281 44.707031 18.75 41.769531 18.402344 35.640625 C 18.195312 32.019531 19.742188 30.03125 19.878906 26.78125 C 20.109375 21.351562 18.808594 18.203125 15.597656 15.285156 C 14.832031 15.929688 14.148438 16.371094 13.0625 16.246094 C 9.398438 15.847656 9.238281 11.417969 5.726562 11.09375 C 4.238281 10.949219 3.5 11.695312 2.816406 12.617188 L 1.472656 11.25 L 3.101562 9.570312 L 0.550781 9.5625 L 0 7.507812 C 1.339844 7.691406 2.144531 6.929688 2.230469 5.851562 L 29.460938 5.851562 C 27.558594 6.308594 26.664062 8.449219 24.730469 8.753906 C 23.507812 8.875 22.734375 8.515625 21.839844 7.878906 C 21.679688 7.878906 21.5 8.042969 21.5 8.210938 C 21.5 8.859375 23.476562 9.410156 24.132812 9.398438 C 27.460938 9.328125 28.09375 5.851562 31.902344 5.851562 L 74.21875 5.851562 L 68.210938 11.160156 C 67.671875 11.640625 66.96875 11.800781 66.339844 11.800781 L 26.070312 11.808594 L 27.109375 12.941406 L 66.304688 12.945312 L 60.03125 18.265625 C 59.496094 18.71875 58.707031 18.878906 58.003906 18.878906 L 32.746094 18.878906 L 33.792969 20.003906 L 58.136719 20.003906 L 51.933594 25.179688 C 51.277344 25.722656 50.316406 25.839844 49.457031 25.839844 L 36.105469 25.839844 L 37.148438 27.007812 L 49.890625 27.007812 L 43.742188 32.363281 C 43.25 32.804688 42.535156 33.023438 41.875 33.023438 L 38.8125 33.023438 C 38.828125 34.105469 39.9375 34.117188 40.589844 34.054688 L 42.285156 34.054688 "/>
</g>
</g>
</svg>

<svg xmlns="http://www.w3.org/2000/svg" width="176pt" height="47.8pt" viewBox="0 0 176 47.8"><defs><clipPath id="a"><path d="M0 0h75v47.8H0Zm0 0"/></clipPath></defs><path d="M152.695 5.941v5.883h8.399v23.098h6.5V11.824H176V5.941Zm-14.527 9.829 6.875 19.152h7.133l-10.578-28.98h-6.457l-11.504 28.98h7.133Zm-23.5 19.152h6.504V5.942h-6.504ZM99.762 5.942l-7.16 19.16-7.235-19.16h-9.082v28.98h6.496V17.594l6.953 17.328h5.579l7.035-17.328v17.328h6.504V5.942" style="stroke:none;fill-rule:nonzero;fill:#264da4;fill-opacity:1"/><path d="M132.336 34.047h7.207l2.36-6.258h-7.204" style="stroke:none;fill-rule:nonzero;fill:#ed3521;fill-opacity:1"/><path d="M76.285 45.828h1.153v-5.316h.015l1.918 5.316h.992l1.914-5.316h.035v5.316h1.141v-6.894h-1.687l-1.852 5.41h-.023l-1.907-5.41h-1.699M87.574 39.758c1.465 0 2.09 1.297 2.09 2.625s-.625 2.633-2.09 2.633c-1.504 0-2.11-1.305-2.11-2.633s.606-2.625 2.11-2.625m0-.988c-2.074 0-3.32 1.652-3.32 3.613 0 1.976 1.246 3.617 3.32 3.617 2.063 0 3.297-1.64 3.297-3.617 0-1.965-1.234-3.613-3.297-3.613M91.648 45.828h1.16V40.77h.024l3.145 5.058h1.277v-6.894H96.09v5.086h-.016l-3.14-5.086h-1.286M104.422 42.195h-2.945v.926h1.847c-.011 1.168-.691 1.914-1.945 1.895-1.469 0-2.086-1.305-2.086-2.633 0-1.313.617-2.621 2.086-2.621.879 0 1.668.465 1.789 1.355h1.18c-.188-1.539-1.457-2.347-2.97-2.347-2.058 0-3.304 1.652-3.304 3.632 0 1.957 1.246 3.598 3.305 3.598.851 0 1.441-.223 2.09-.965l.191.797h.762M108.402 39.758c1.485 0 2.09 1.297 2.09 2.625s-.605 2.633-2.09 2.633c-1.492 0-2.09-1.305-2.09-2.633s.598-2.625 2.09-2.625m0-.988c-2.066 0-3.316 1.652-3.316 3.613 0 1.976 1.25 3.617 3.316 3.617 2.059 0 3.309-1.64 3.309-3.617 0-1.965-1.25-3.613-3.309-3.613M112.535 45.828h4.719v-1.035h-3.508v-5.86h-1.21M117.805 38.934h1.207v6.89h-1.207zM119.41 45.828h1.238l.649-1.812h2.758l.652 1.812h1.29l-2.669-6.902h-1.281Zm3.258-5.707h.031l1.043 2.984h-2.101M126.336 45.828h1.144V40.77h.032l3.144 5.058h1.281v-6.894h-1.156v5.086h-.02l-3.148-5.086h-1.277M134.691 45.828h1.239l.648-1.812h2.754l.652 1.812h1.301l-2.672-6.902h-1.281Zm3.258-5.707h.028l1.043 2.984h-2.106M141.668 38.934h1.195v6.89h-1.195zM144.074 45.828h1.192V43h1.793c1.129 0 1.375.547 1.375 1.82 0 .325 0 .72.183 1.004h1.297c-.254-.273-.371-1.004-.371-1.808 0-1.086-.617-1.407-1.02-1.465v-.012c.215-.094 1.137-.422 1.137-1.746 0-1.168-.77-1.863-2.297-1.863h-3.281v6.898Zm1.192-5.914h1.964c.653 0 1.211.188 1.211 1.059 0 .734-.418 1.105-1.183 1.105h-1.992M150.59 45.828h4.71v-1.035h-3.495v-5.86h-1.215M155.863 38.934h1.203v6.89h-1.203zM158.21 45.828h1.157V40.77h.024l3.148 5.058h1.277v-6.894h-1.164v5.086h-.02l-3.136-5.086h-1.285M164.96 45.828h5.044v-1.035h-3.84v-2.004h3.48v-1.016h-3.48v-1.8h3.781v-1.04h-4.984" style="stroke:none;fill-rule:nonzero;fill:#264da4;fill-opacity:1"/><g clip-path="url(#a)"><path d="M15.926 4.918c-.281-.2-.883-1.695-.77-2.617.14-1.16 1.09-2.313 2.266-2.301 1.355.027 2.402.879 3.933.898.641.012 1.2-.449 1.582-.652-.28 1.336-1.058 2.863-2.457 3.223-1.117.285-2.578-.2-3.543.195-.546.219-.894.957-1.011 1.254m10.898 42.883c-3.71-3.094-8.074-6.031-8.422-12.16-.207-3.621 1.34-5.61 1.477-8.86.23-5.43-1.07-8.578-4.281-11.496-.766.645-1.45 1.086-2.536.961-3.664-.398-3.824-4.828-7.335-5.152-1.489-.145-2.227.601-2.91 1.523L1.472 11.25l1.629-1.68L.55 9.562 0 7.509c1.34.183 2.145-.578 2.23-1.656h27.23c-1.901.457-2.796 2.597-4.73 2.902-1.222.121-1.996-.238-2.89-.875-.16 0-.34.164-.34.332 0 .648 1.977 1.2 2.633 1.187 3.328-.07 3.96-3.546 7.77-3.546h42.316L68.21 11.16c-.54.48-1.242.64-1.871.64l-40.27.009 1.04 1.132 39.195.004-6.274 5.32c-.535.454-1.324.614-2.027.614H32.746l1.047 1.125h24.344l-6.203 5.176c-.657.543-1.618.66-2.477.66H36.105l1.043 1.168h12.743l-6.149 5.355c-.492.442-1.207.66-1.867.66h-3.062c.015 1.082 1.124 1.094 1.777 1.032h1.695" style="stroke:none;fill-rule:nonzero;fill:#264da4;fill-opacity:1"/></g></svg>
